X: 15293
T: Girls Of Balladoole
R: slip jig
M: 9/8
K: Dmajor
|:DED F2A d3|ABA A2G FGE|~D3 DFA d2f|1 efe e2d cBA:|2 efe e2d cde||
|:f2d d2A d2e|f2d d2A cde|f2d d2A def|1 efe e2d cde:|2 efe e2d cBA||

